X:10345
T:Marion Egan's Reel
R:Reel
S:
C:Tony Sullivan
H:
N:
D:Session (Milltown)
Z:Adrian Scahill
M:4/4
L:1/8
K:G
B3e dBGB|AGBA GEDG|Bd^ce dGBd|gedB ABGA|\
Bdde dBGB|AcBA GEDG|DEGA (3Bcd ge|dBAB G4:||\
g3a gedg|egdg edBd|g3a gedB|AGBA GED2|\
g3a gedg|egdg edBA|G2 (3Bcd gedB|AGAB G4:||
